projects/flag-game/flags/Chad.svg

<svg viewBox="0 0 1000 667" xmlns="http://www.w3.org/2000/svg" xmlns:xlink="http://www.w3.org/1999/xlink"><clipPath id="a"><path d="m0 0h1000v666.71875h-1000zm0 0"/></clipPath><clipPath id="b"><path d="m333 0h667v666.71875h-667zm0 0"/></clipPath><clipPath id="c"><path d="m666 0h334v666.71875h-334zm0 0"/></clipPath><g clip-path="url(#a)"><path d="m0 666.667969v-666.667969h1000v666.667969zm0 0" fill="#002664" fill-rule="evenodd"/></g><g clip-path="url(#b)"><path d="m333.332031 0h666.667969v666.667969h-666.667969zm0 0" fill="#fecb00" fill-rule="evenodd"/></g><g clip-path="url(#c)"><path d="m666.667969 0h333.332031v666.667969h-333.332031zm0 0" fill="#c60c30" fill-rule="evenodd"/></g></svg>

<?xml version="1.0" encoding="UTF-8"?>
<svg xmlns="http://www.w3.org/2000/svg" xmlns:xlink="http://www.w3.org/1999/xlink" viewBox="0 0 1000 667" version="1.1">
<defs>
<clipPath id="clip1">
  <path d="M 0 0 L 1000 0 L 1000 666.71875 L 0 666.71875 Z M 0 0 "/>
</clipPath>
<clipPath id="clip2">
  <path d="M 333 0 L 1000 0 L 1000 666.71875 L 333 666.71875 Z M 333 0 "/>
</clipPath>
<clipPath id="clip3">
  <path d="M 666 0 L 1000 0 L 1000 666.71875 L 666 666.71875 Z M 666 0 "/>
</clipPath>
</defs>
<g id="surface284">
<g clip-path="url(#clip1)" clip-rule="nonzero">
<path style=" stroke:none;fill-rule:evenodd;fill:rgb(0%,14.901733%,39.215088%);fill-opacity:1;" d="M 0 666.667969 L 0 0 L 1000 0 L 1000 666.667969 Z M 0 666.667969 "/>
</g>
<g clip-path="url(#clip2)" clip-rule="nonzero">
<path style=" stroke:none;fill-rule:evenodd;fill:rgb(99.606323%,79.606628%,0%);fill-opacity:1;" d="M 333.332031 0 L 1000 0 L 1000 666.667969 L 333.332031 666.667969 Z M 333.332031 0 "/>
</g>
<g clip-path="url(#clip3)" clip-rule="nonzero">
<path style=" stroke:none;fill-rule:evenodd;fill:rgb(77.645874%,4.705811%,18.823242%);fill-opacity:1;" d="M 666.667969 0 L 1000 0 L 1000 666.667969 L 666.667969 666.667969 Z M 666.667969 0 "/>
</g>
</g>
</svg>
